app/assets/v2/images/avatar/HairStyle/womanhair2-0ECF7C.svg

<svg xmlns="http://www.w3.org/2000/svg" style="isolation:isolate" width="887.7" height="1011.7"><defs><clipPath id="a"><path d="M0 0h887.7v1011.7H0z"/></clipPath></defs><g clip-path="url(#a)"><path d="M695 414.9c2-108.3-37.1-177-85.9-219.1-94.2-81.4-236.8-81.4-328.5 0-48.2 42.8-87.9 110.8-85.9 219.1 0 0-5 226.4 100.1 290.2 0 0-5-70 40-70h6.3c-4.8-3.8-9.5-7.8-14-12.1-47.4-45-52.3-114.1-52.3-176.9 0-66 20.2-111.2 20.2-111.2s33.2 40 90 40c0 0-65.7-51.9-30-70 0 0 126.5 7.2 253 151.8 4.7 5.3 7.2 12.2 7.1 19.3-.3 28.2-5.6 103.2-52.5 147-4.5 4.2-9.2 8.2-14.2 12.1h6.4c45 0 40 70 40 70C700 641.2 695 414.9 695 414.9z" fill="#0ECF7C" vector-effect="non-scaling-stroke" stroke-width="26.9" stroke="#333"/></g></svg>

<?xml version="1.0" standalone="no"?><!-- Generator: Gravit.io --><svg xmlns="http://www.w3.org/2000/svg" xmlns:xlink="http://www.w3.org/1999/xlink" style="isolation:isolate" viewBox="0 0 887.7 1011.7" width="887.7" height="1011.7"><defs><clipPath id="_clipPath_AuC2UvjVOJyD6TydfmWhSQgsjWZZ7j58"><rect width="887.7" height="1011.7"/></clipPath></defs><g clip-path="url(#_clipPath_AuC2UvjVOJyD6TydfmWhSQgsjWZZ7j58)"><path d=" M 695 414.9 C 697 306.6 657.9 237.9 609.1 195.8 C 514.9 114.4 372.3 114.4 280.6 195.8 C 232.4 238.6 192.7 306.6 194.7 414.9 C 194.7 414.9 189.7 641.3 294.8 705.1 C 294.8 705.1 289.8 635.1 334.8 635.1 L 341.1 635.1 C 336.3 631.3 331.6 627.3 327.1 623 C 279.7 578 274.8 508.9 274.8 446.1 C 274.8 380.1 295 334.9 295 334.9 C 295 334.9 328.2 374.9 385 374.9 C 385 374.9 319.3 323 355 304.9 C 355 304.9 481.5 312.1 608 456.7 C 612.7 462 615.2 468.9 615.1 476 C 614.8 504.2 609.5 579.2 562.6 623 C 558.1 627.2 553.4 631.2 548.4 635.1 L 554.8 635.1 C 599.8 635.1 594.8 705.1 594.8 705.1 C 700 641.2 695 414.9 695 414.9 Z " fill="rgb(14,207,124)" vector-effect="non-scaling-stroke" stroke-width="26.9" stroke="rgb(51,51,51)" stroke-linejoin="miter" stroke-linecap="butt" stroke-miterlimit="4"/></g></svg>
